X:1
T:Room at the Cross
T:Room at the Cross
T:William Burdine Blake, Sr.
T:William Burdine Blake, Sr., 1880
T:Public Domain Courtesy of the Cyber Hymnal™
C:William Burdine Blake, Sr.
Z:Public Domain
Z:Courtesy of the Cyber Hymnal™
%%score ( 1 2 ) 3
L:1/8
Q:1/4=95
M:6/8
K:A
V:1 treble 
V:2 treble 
V:3 bass 
V:1
 [CE][DF][CE] [Ec][DB][CA] | (BA)[DF] [CE]3 | [CE][DF][CE] [Fd]2 [Ec] | [EB]6 | %4
w: 1.~Room at the cross for a|trem- * bling soul,|Room at the cross for|you;|
w: 2.~Room at the cross for a|break- * ing heart,|Room at the cross for|you;|
w: 3.~Room at the cross for earth’s|weary * and worn,|Room at the cross for|you;|
 [CE][DF][CE] [Ec][DB][CA] | (BA)[DF] [CE]3 | E[EG][EB] [Ed]2 [DG] | [CA]6 || %8
w: Where the sin- la- den may|be * made whole,|Room at the cross for|you.|
w: Choose, then, like Ma- ry, the|bet- * ter part,|Room at the cross for|you.|
w: Come, then, oh! come, then, ye|souls * who mourn,|Room at the cross for|you.|
"^Refrain" [Ec]3 [CA]3 | [FB][FA][DF] [CE]3 | [CE][DF][CE] [Fd]2 [Ec] | [EB]6 | [Ec]3 [CA]3 | %13
w: |||||
w: Room, room,|room at the cross,|Room at the cross for|you;|Room, room,|
w: |||||
 [FB][FA][DF] [CE]3 | E[EG][EB] [Ed]2 [DG] | [CA]6 |] %16
w: |||
w: room at the cross,|Room at the cross for|you.|
w: |||
V:2
 x6 | F2 x4 | x6 | x6 | x6 | F2 x4 | E x5 | x6 || x6 | x6 | x6 | x6 | x6 | x6 | E x5 | x6 |] %16
V:3
 [A,,A,][A,,A,][A,,A,] [A,,A,][A,,A,][A,,A,] | [D,A,]2 [D,A,] [A,,A,]3 | %2
 [A,,A,][A,,A,][A,,A,] [A,,A,]2 [A,,A,] | [E,G,]6 | [A,,A,][A,,A,][A,,A,] [A,,A,][A,,A,][A,,A,] | %5
 [D,A,]2 [D,A,] [A,,A,]3 | [E,G,][E,B,][E,G,] [E,G,]2 [E,B,] | [A,,A,]6 || [A,,A,]3 [A,,A,]3 | %9
 [D,A,][D,A,][D,A,] [A,,A,]3 | [A,,A,][A,,A,][A,,A,] [A,,A,]2 [A,,A,] | [E,G,]6 | %12
 [A,,A,]3 [A,,A,]3 | [D,A,][D,A,][D,A,] [A,,A,]3 | [E,G,][E,B,][E,G,] [E,G,]2 [E,B,] | [A,,A,]6 |] %16

